src/assets/star-icon-example.svg

<svg width="155" height="155" viewBox="0 0 26 26" fill="none" xmlns="http://www.w3.org/2000/svg">
<path d="M13 26C20.1797 26 26 20.1797 26 13C26 5.8203 20.1797 0 13 0C5.8203 0 0 5.8203 0 13C0 20.1797 5.8203 26 13 26Z" fill="url(#paint0_linear_1046_1911)"/>
<path d="M13.0487 4.71594C12.7144 4.71594 12.5457 4.88979 12.4026 5.03935C12.2535 5.20369 12.1226 5.38096 12.0117 5.56862C11.7586 5.97457 11.5012 6.48642 11.2481 7.00599C10.995 7.5246 10.7483 8.04997 10.5379 8.45884C10.4322 8.66278 10.335 8.83758 10.2581 8.95995C10.2122 9.03182 10.1684 9.08236 10.1481 9.10761C10.1172 9.11926 10.0552 9.14449 9.97193 9.16392C9.83096 9.19694 9.63339 9.2319 9.40592 9.26492C8.9499 9.33096 8.37108 9.39313 7.79652 9.46403C7.22196 9.53395 6.65381 9.61066 6.18711 9.71749C5.96977 9.76246 5.75849 9.82887 5.55703 9.91559C5.36907 10.0011 5.14693 10.104 5.04121 10.4197C4.93548 10.7353 5.05188 10.9499 5.1512 11.1315C5.24945 11.3131 5.37974 11.4841 5.5346 11.6666C5.84323 12.0318 6.2512 12.4339 6.66876 12.835C7.08527 13.2351 7.5103 13.6313 7.83496 13.9576C7.99622 14.1198 8.13399 14.2665 8.2269 14.3772C8.2803 14.4423 8.31554 14.5004 8.3337 14.5276C8.3337 14.5597 8.33904 14.6268 8.33263 14.7122C8.31401 14.9021 8.28765 15.0913 8.2536 15.2794C8.17671 15.7319 8.0571 16.3001 7.94603 16.8672C7.83603 17.4334 7.73351 17.9967 7.69079 18.4725C7.66943 18.7105 7.66195 18.9251 7.68545 19.13C7.70894 19.3359 7.73885 19.5778 8.00584 19.7759C8.27496 19.973 8.51525 19.9303 8.71923 19.8924C8.92321 19.8536 9.12611 19.7837 9.34825 19.6934C9.79145 19.5137 10.3019 19.2504 10.8124 18.9785C11.3229 18.7066 11.8323 18.4269 12.2435 18.22C12.4485 18.1161 12.6301 18.0316 12.7657 17.9772C12.8447 17.9471 12.9099 17.9317 12.9408 17.9239C12.9729 17.9336 13.0369 17.9481 13.117 17.9812C13.2505 18.0365 13.431 18.125 13.6339 18.2308C14.0419 18.4445 14.547 18.7328 15.0532 19.0135C15.5594 19.2932 16.0646 19.5642 16.5057 19.7516C16.7256 19.8448 16.9275 19.9186 17.1315 19.9604C17.3344 20.0011 17.5747 20.0479 17.8459 19.8546C18.1172 19.6613 18.1503 19.4195 18.177 19.2146C18.2037 19.0106 18.1984 18.795 18.1823 18.5571C18.1323 18.0178 18.0557 17.4809 17.9527 16.9479C17.8513 16.3788 17.7413 15.8096 17.6708 15.3551C17.6399 15.1663 17.6168 14.9765 17.6014 14.7861C17.596 14.7016 17.6014 14.6345 17.6046 14.6015C17.6217 14.5762 17.658 14.518 17.7135 14.4539C17.8075 14.3442 17.9474 14.2004 18.1118 14.0402C18.4408 13.7197 18.8722 13.3303 19.2962 12.936C19.7191 12.5427 20.1345 12.1464 20.4496 11.787C20.6066 11.6064 20.7379 11.4374 20.8405 11.2578C20.943 11.0781 21.0626 10.8654 20.9622 10.5478C20.8607 10.2303 20.6408 10.1244 20.4539 10.0351C20.2541 9.94559 20.0442 9.87586 19.828 9.82721C19.3635 9.71358 18.7953 9.62718 18.2218 9.54755C17.6484 9.46791 17.0717 9.39603 16.6167 9.32319C16.4267 9.29372 16.2382 9.25677 16.0518 9.21246C15.9695 9.1911 15.9076 9.16488 15.8777 9.1542C15.8574 9.12797 15.8136 9.07651 15.7698 9.00464C15.6723 8.83922 15.5818 8.67044 15.4986 8.49867C15.2946 8.08689 15.0564 7.55664 14.8119 7.03415C14.5899 6.54103 14.3429 6.05751 14.0718 5.58516C13.9635 5.39616 13.8351 5.21727 13.6884 5.05103C13.5485 4.89855 13.383 4.71886 13.0487 4.71594ZM13.0391 5.85225C13.0925 5.92315 13.1437 5.9843 13.2121 6.0989C13.4203 6.44366 13.6638 6.94191 13.9041 7.45566C14.1444 7.97038 14.3826 8.50158 14.6004 8.94152C14.7094 9.16003 14.8119 9.3562 14.9144 9.52325C15.0159 9.69029 15.0895 9.82431 15.2775 9.96319C15.4655 10.1021 15.616 10.1322 15.8061 10.1807C15.9962 10.2283 16.2141 10.2681 16.4565 10.3079C16.9414 10.3866 17.5213 10.4585 18.0841 10.5362C18.648 10.6149 19.1958 10.7013 19.5878 10.7965C19.718 10.8285 19.7907 10.8586 19.8761 10.8887C19.8238 10.9625 19.7811 11.0295 19.6945 11.1296C19.4286 11.4335 19.0292 11.8191 18.6127 12.2046C18.1962 12.5921 17.7637 12.9826 17.4123 13.3244C17.2361 13.4953 17.0813 13.6546 16.9531 13.8022C16.826 13.9498 16.7203 14.0615 16.6466 14.283C16.5719 14.5034 16.59 14.6558 16.6028 14.851C16.6157 15.0453 16.6445 15.2648 16.6819 15.5076C16.7566 15.9912 16.8677 16.5632 16.967 17.1217C17.0663 17.6801 17.1539 18.2268 17.1838 18.6289C17.1934 18.761 17.187 18.8397 17.1838 18.93C17.0984 18.9038 17.0204 18.8833 16.8976 18.8319C16.527 18.6745 16.0358 18.4143 15.5392 18.1394C15.0415 17.8636 14.5353 17.5743 14.0996 17.3461C13.9054 17.2422 13.7062 17.1462 13.5026 17.0586C13.3221 16.9838 13.1833 16.9178 12.9494 16.9159C12.7155 16.9159 12.5756 16.9779 12.394 17.0498C12.2125 17.1227 12.0117 17.2178 11.7928 17.3276C11.3549 17.548 10.8423 17.8306 10.3404 18.0977C9.83844 18.3648 9.34505 18.6164 8.97126 18.7679C8.84738 18.8184 8.77049 18.8367 8.68292 18.862C8.68185 18.7717 8.67651 18.6931 8.68826 18.561C8.72457 18.1599 8.82068 17.6141 8.92961 17.0576C9.03747 16.5012 9.15815 15.931 9.24039 15.4483C9.27965 15.2309 9.30958 15.0123 9.33009 14.7928C9.34611 14.5986 9.36641 14.4461 9.29592 14.2237C9.22544 14.0013 9.12185 13.8887 8.9969 13.7381C8.85389 13.5709 8.70317 13.4092 8.54515 13.2535C8.2002 12.9058 7.77303 12.5086 7.36293 12.1153C6.99028 11.7663 6.63569 11.4017 6.30032 11.0227C6.21382 10.9208 6.17217 10.8538 6.12197 10.779C6.20741 10.7499 6.28109 10.7207 6.41032 10.6906C6.80439 10.6003 7.35439 10.5235 7.91933 10.4546C8.48321 10.3856 9.06417 10.3235 9.55009 10.2526C9.79358 10.2177 10.0125 10.1798 10.2026 10.1351C10.3927 10.0904 10.5444 10.0623 10.7344 9.92632C10.9245 9.79036 11.0014 9.65728 11.105 9.49219C11.2097 9.32709 11.3154 9.13286 11.4276 8.91532C11.6518 8.47926 11.8996 7.95191 12.1484 7.44107C12.3642 6.98335 12.6023 6.53454 12.8618 6.09599C12.9323 5.98237 12.9835 5.92214 13.0391 5.85125V5.85225Z" fill="white"/>
<defs>
<linearGradient id="paint0_linear_1046_1911" x1="13" y1="0" x2="13" y2="26" gradientUnits="userSpaceOnUse">
<stop stop-color="#024EC9"/>
<stop offset="1" stop-color="#5093FF"/>
</linearGradient>
</defs>
</svg>

<svg width="155" height="155" viewBox="0 0 26 26" fill="none" xmlns="http://www.w3.org/2000/svg"><path d="M13 26c7.18 0 13-5.82 13-13S20.18 0 13 0 0 5.82 0 13s5.82 13 13 13z" fill="url(#paint0_linear_1046_1911)"/><path d="M13.049 4.716c-.335 0-.503.174-.646.323-.15.165-.28.342-.391.53-.253.406-.51.917-.764 1.437-.253.519-.5 1.044-.71 1.453a7.42 7.42 0 01-.28.5c-.046.073-.09.123-.11.149-.03.011-.093.036-.176.056a7.165 7.165 0 01-.566.1c-.456.067-1.035.13-1.61.2a16.92 16.92 0 00-1.609.253 3.27 3.27 0 00-.63.199c-.188.085-.41.188-.516.504-.106.315.01.53.11.712.098.181.229.352.384.535.308.365.716.767 1.134 1.168.416.4.841.796 1.166 1.123.161.162.299.309.392.42.053.064.089.122.107.15 0 .032.005.099-.001.184-.019.19-.045.38-.08.567-.076.453-.196 1.021-.307 1.588-.11.566-.212 1.13-.255 1.605a3.236 3.236 0 00-.006.658c.024.206.054.448.32.646.27.197.51.154.714.116a3.33 3.33 0 00.63-.199c.442-.18.953-.443 1.463-.715.51-.271 1.02-.551 1.431-.758.205-.104.387-.188.523-.243.079-.03.144-.045.175-.053.032.01.096.024.176.057.133.055.314.144.517.25.408.213.913.502 1.42.782.505.28 1.01.551 1.452.739.22.093.421.167.625.208.203.041.444.088.715-.105.271-.194.304-.436.331-.64a3.34 3.34 0 00.005-.658c-.05-.54-.126-1.076-.23-1.61-.1-.568-.21-1.137-.281-1.592a7.033 7.033 0 01-.07-.569c-.005-.084 0-.152.004-.184.017-.026.053-.084.108-.148.095-.11.234-.254.399-.414.329-.32.76-.71 1.184-1.104.423-.393.838-.79 1.154-1.149.157-.18.288-.35.39-.53.103-.179.223-.392.122-.71-.101-.317-.321-.423-.508-.512-.2-.09-.41-.16-.626-.208-.465-.113-1.033-.2-1.606-.28-.574-.08-1.15-.151-1.605-.224a7.243 7.243 0 01-.565-.11c-.082-.022-.144-.048-.174-.059-.02-.026-.064-.077-.108-.15a7.043 7.043 0 01-.271-.505c-.204-.412-.443-.942-.687-1.465a16.605 16.605 0 00-.74-1.449 3.249 3.249 0 00-.384-.534c-.14-.152-.305-.332-.64-.335zm-.01 1.136c.053.071.105.132.173.247.208.345.452.843.692 1.357.24.514.479 1.046.696 1.486.11.218.212.414.314.581.102.167.175.301.364.44.188.14.338.17.528.218.19.047.408.087.65.127.485.079 1.065.15 1.628.228.564.079 1.112.165 1.504.26.13.033.203.063.288.093-.052.074-.095.14-.181.24-.266.305-.666.69-1.082 1.076-.417.387-.85.778-1.2 1.12-.177.17-.332.33-.46.477-.127.148-.233.26-.306.481-.075.22-.057.373-.044.568.013.194.041.414.079.657.075.483.186 1.055.285 1.614.1.558.187 1.105.217 1.507.01.132.003.21 0 .301-.086-.026-.164-.047-.286-.098a16.23 16.23 0 01-1.359-.693c-.498-.275-1.004-.565-1.44-.793a7.803 7.803 0 00-.596-.287c-.18-.075-.32-.141-.554-.143-.233 0-.373.062-.555.134a8.187 8.187 0 00-.601.278c-.438.22-.95.503-1.453.77-.502.267-.995.518-1.369.67-.124.05-.2.069-.288.094-.001-.09-.006-.169.005-.301.037-.401.133-.947.242-1.503.107-.557.228-1.127.31-1.61.04-.217.07-.436.09-.655.016-.194.036-.347-.034-.57-.07-.222-.174-.334-.3-.485a7.777 7.777 0 00-.45-.484c-.346-.348-.773-.745-1.183-1.139A16.262 16.262 0 016.3 11.023c-.086-.102-.128-.17-.178-.244.085-.03.16-.058.288-.088.394-.09.944-.168 1.51-.236.563-.07 1.144-.132 1.63-.202.244-.035.462-.073.653-.118.19-.045.341-.073.531-.209s.267-.269.371-.434c.105-.165.21-.36.323-.577.224-.436.472-.963.72-1.474.216-.458.454-.906.714-1.345.07-.114.121-.174.177-.245v.001z" fill="#fff"/><defs><linearGradient id="paint0_linear_1046_1911" x1="13" y1="0" x2="13" y2="26" gradientUnits="userSpaceOnUse"><stop stop-color="#024EC9"/><stop offset="1" stop-color="#5093FF"/></linearGradient></defs></svg>
